assets/icon/aivoice2_icon.svg

<svg xmlns="http://www.w3.org/2000/svg" viewBox="0 0 256 256"><clipPath id="c"><circle r="128" cy="128" cx="128"/></clipPath><g clip-path="url(#c)"><path fill="#fff" d="M256,0V256H0V0"/><path d="M0 177h35.75L76.5 96.525 117.25 177H131L81.375 79h-9.75l-43.55 86H0m160.125 12L110.5 79H96.75l49.625 98M256 79h-34.75l-40.75 80.475L139.75 79H126l49.625 98h9.75l43.55-86H256"/><circle cx="76.5" cy="169.625" r="7.375"/></g></svg>

<svg xmlns="http://www.w3.org/2000/svg" xmlns:xlink="http://www.w3.org/1999/xlink" fill="#000" width="256" height="256"><clipPath id="c"><circle r="128" cy="128" cx="128"/></clipPath><g clip-path="url(#c)"><path fill="#fff" d="M256,0V256H0V0"/><path d="M0,177H35.75L76.5,96.525 117.25,177H131L81.375,79H71.625L28.075,165H0M160.125,177 110.5,79H96.75L146.375,177M256,79H221.25L180.5,159.475 139.75,79H126L175.625,177H185.375L228.925,91H256"/><circle cx="76.5" cy="169.625" r="7.375"/></g></svg>
